docs/docs/assets/opencode-wordmark-dark.svg

<svg width='641' height='115' viewBox='0 0 641 115' fill='none' xmlns='http://www.w3.org/2000/svg'><g clip-path='url(#clip0_1401_86292)'><mask id='mask0_1401_86292' style='mask-type:luminance' maskUnits='userSpaceOnUse' x='0' y='0' width='641' height='115'><path d='M640.714 0H0V115H640.714V0Z' fill='white'/></mask><g mask='url(#mask0_1401_86292)'><path d='M49.2868 82.1433H16.4297V49.2861H49.2868V82.1433Z' fill='#4B4646'/><path d='M49.2857 32.8573H16.4286V82.143H49.2857V32.8573ZM65.7143 98.5716H0V16.4287H65.7143V98.5716Z' fill='#B7B1B1'/><path d='M131.427 82.1433H98.5703V49.2861H131.427V82.1433Z' fill='#4B4646'/><path d='M98.5692 82.143H131.426V32.8573H98.5692V82.143ZM147.855 98.5716H98.5692V115H82.1406V16.4287H147.855V98.5716Z' fill='#B7B1B1'/><path d='M229.997 65.7139V82.1424H180.711V65.7139H229.997Z' fill='#4B4646'/><path d='M230.003 65.7144H180.718V82.143H230.003V98.5716H164.289V16.4287H230.003V65.7144ZM180.718 49.2859H213.575V32.8573H180.718V49.2859Z' fill='#B7B1B1'/><path d='M295.717 98.5718H262.859V49.2861H295.717V98.5718Z' fill='#4B4646'/><path d='M295.715 32.8573H262.858V98.5716H246.43V16.4287H295.715V32.8573ZM312.144 98.5716H295.715V32.8573H312.144V98.5716Z' fill='#B7B1B1'/><path d='M394.286 82.1433H345V49.2861H394.286V82.1433Z' fill='#4B4646'/><path d='M394.285 32.8573H344.999V82.143H394.285V98.5716H328.57V16.4287H394.285V32.8573Z' fill='#F1ECEC'/><path d='M459.998 82.1433H427.141V49.2861H459.998V82.1433Z' fill='#4B4646'/><path d='M459.997 32.8573H427.14V82.143H459.997V32.8573ZM476.425 98.5716H410.711V16.4287H476.425V98.5716Z' fill='#F1ECEC'/><path d='M542.146 82.1433H509.289V49.2861H542.146V82.1433Z' fill='#4B4646'/><path d='M542.145 32.8571H509.288V82.1429H542.145V32.8571ZM558.574 98.5714H492.859V16.4286H542.145V0H558.574V98.5714Z' fill='#F1ECEC'/><path d='M640.715 65.7139V82.1424H591.43V65.7139H640.715Z' fill='#4B4646'/><path d='M591.429 32.8573V49.2859H624.286V32.8573H591.429ZM640.714 65.7144H591.429V82.143H640.714V98.5716H575V16.4287H640.714V65.7144Z' fill='#F1ECEC'/></g></g><defs><clipPath id='clip0_1401_86292'><rect width='640.714' height='115' fill='white'/></clipPath></defs></svg>

<svg xmlns="http://www.w3.org/2000/svg" width="641" height="115" fill="none" viewBox="0 0 641 115"><g clip-path="url(#a)"><mask id="b" width="641" height="115" x="0" y="0" maskUnits="userSpaceOnUse" style="mask-type:luminance"><path fill="#fff" d="M640.714 0H0v115h640.714z"/></mask><g mask="url(#b)"><path fill="#4b4646" d="M49.287 82.143H16.43V49.286h32.857z"/><path fill="#b7b1b1" d="M49.286 32.857H16.429v49.286h32.857zm16.428 65.715H0V16.429h65.714z"/><path fill="#4b4646" d="M131.427 82.143H98.57V49.286h32.857z"/><path fill="#b7b1b1" d="M98.57 82.143h32.856V32.857H98.569zm49.285 16.429H98.569V115H82.141V16.429h65.714z"/><path fill="#4b4646" d="M229.997 65.714v16.428h-49.286V65.714z"/><path fill="#b7b1b1" d="M230.003 65.714h-49.285v16.429h49.285v16.429h-65.714V16.429h65.714zm-49.285-16.428h32.857V32.857h-32.857z"/><path fill="#4b4646" d="M295.717 98.572h-32.858V49.286h32.858z"/><path fill="#b7b1b1" d="M295.715 32.857h-32.857v65.715H246.43V16.429h49.285zm16.429 65.715h-16.429V32.857h16.429z"/><path fill="#4b4646" d="M394.286 82.143H345V49.286h49.286z"/><path fill="#f1ecec" d="M394.285 32.857h-49.286v49.286h49.286v16.429H328.57V16.429h65.715z"/><path fill="#4b4646" d="M459.998 82.143h-32.857V49.286h32.857z"/><path fill="#f1ecec" d="M459.997 32.857H427.14v49.286h32.857zm16.428 65.715h-65.714V16.429h65.714z"/><path fill="#4b4646" d="M542.146 82.143h-32.857V49.286h32.857z"/><path fill="#f1ecec" d="M542.145 32.857h-32.857v49.286h32.857zm16.429 65.714h-65.715V16.43h49.286V0h16.429z"/><path fill="#4b4646" d="M640.715 65.714v16.428H591.43V65.714z"/><path fill="#f1ecec" d="M591.429 32.857v16.429h32.857V32.857zm49.285 32.857h-49.285v16.429h49.285v16.429H575V16.429h65.714z"/></g></g><defs><clipPath id="a"><path fill="#fff" d="M0 0h640.714v115H0z"/></clipPath></defs></svg>
